X: 20245
T: Joe Derrane's
R: jig
M: 6/8
K: Bminor
|:B3 BAF|AFE EFE|DFA def|afe dBA|
B3 BAF|AFE EFE|DFA def|1 edB B2A:|2 edB Bcd||
|:e3 edB|AFF dFF|def afa|b3afa|
bff afa|baf edB|def afe|1 dBB Bcd:|2 dBA B2A||

